svg/current.svg

<?xml version="1.0" encoding="UTF-8" standalone="no"?>
<svg width="76px" height="18px" viewBox="0 0 76 18" version="1.1" xmlns="http://www.w3.org/2000/svg" xmlns:xlink="http://www.w3.org/1999/xlink">
    <!-- Generator: Sketch 40.1 (33804) - http://www.bohemiancoding.com/sketch -->
    <title>current</title>
    <desc>Created with Sketch.</desc>
    <defs></defs>
    <g id="Page-1" stroke="none" stroke-width="1" fill="none" fill-rule="evenodd">
        <g id="current" fill="#000000">
            <path d="M31.9990251,18 C29.5706862,16.1755424 28,13.2711979 28,10 C28,5.581722 24.418278,2 20,2 L0,2 L0,0 L20,0 C25.5228475,0 30,4.4771525 30,10 C30,14.418278 33.581722,18 38,18 L58,18 C62.418278,18 66,14.418278 66,10 C66,4.4771525 70.4771525,0 76,0 L76,2 C71.581722,2 68,5.581722 68,10 C68,13.2711979 66.4293138,16.1755424 64.0009749,18 L31.9990251,18 L31.9990251,18 Z M64.0009749,0 C62.3294868,1.25582103 60.2516496,2 58,2 L38,2 C35.7483504,2 33.6705132,1.25582103 31.9990251,4.86721774e-13 L64.0009749,0 Z" id="Combined-Shape"></path>
        </g>
    </g>
</svg>

<svg width="76" height="18" xmlns="http://www.w3.org/2000/svg"><path d="M31.999 18A9.985 9.985 0 0 1 28 10a8 8 0 0 0-8-8H0V0h20c5.523 0 10 4.477 10 10a8 8 0 0 0 8 8h20a8 8 0 0 0 8-8c0-5.523 4.477-10 10-10v2a8 8 0 0 0-8 8 9.985 9.985 0 0 1-3.999 8H31.999ZM64.001 0A9.956 9.956 0 0 1 58 2H38a9.956 9.956 0 0 1-6.001-2h32.002Z" fill="#000" fill-rule="evenodd"/></svg>
